packages/tokens/icons/learning/size24Px.svg

<svg viewBox="0 0 24 24" fill="none" xmlns="http://www.w3.org/2000/svg" width="1em" height="1em"><path d="M3.15844 10.3393C2.81954 10.24 2.81954 9.75996 3.15844 9.6607L11.8012 7.12928C11.931 7.09127 12.069 7.09127 12.1988 7.12928L20.8416 9.6607C21.1805 9.75996 21.1805 10.24 20.8416 10.3393L12.1988 12.8707C12.069 12.9087 11.931 12.9087 11.8012 12.8707L3.15844 10.3393Z" stroke="currentColor" stroke-linejoin="round"/><path d="M19.6774 10.707V14.2426" stroke="currentColor" stroke-linecap="round"/><path d="M6.94995 13.5356L6.94995 16.3641C6.94995 16.7546 7.26653 17.0712 7.65706 17.0712H16.1423C16.5329 17.0712 16.8494 16.7546 16.8494 16.3641V13.5356" stroke="currentColor" stroke-linecap="round" stroke-linejoin="round"/></svg>

<svg xmlns="http://www.w3.org/2000/svg" fill="none" viewBox="0 0 24 24" width="1em" height="1em"><path stroke="currentColor" stroke-linejoin="round" d="M3.158 10.34c-.338-.1-.338-.58 0-.68l8.643-2.53a.707.707 0 0 1 .398 0l8.643 2.53c.338.1.338.58 0 .68l-8.643 2.53a.708.708 0 0 1-.398 0l-8.643-2.53Z"/><path stroke="currentColor" stroke-linecap="round" d="M19.677 10.707v3.536"/><path stroke="currentColor" stroke-linecap="round" stroke-linejoin="round" d="M6.95 13.536v2.828c0 .39.317.707.707.707h8.485c.39 0 .707-.316.707-.707v-2.828"/></svg>
